X:4257
T:Es gingen zwei Gespielen gut
C:Clemens non papa
N:1556
Z:Transcribed by Frank Nordberg - http://www.musicaviva.com
F:http://abc.musicaviva.com/tunes/papa-clemens-non/papa-es-gingen/papa-es-gingen-3m.abc
M:C|
L:1/4
Q:1/4=120
K:Dm
V:1
A2A>G|FFFE|FA2G/F/|ECFA|
V:2
z D,D,D,|A,2A,C|A,2F,2|z A,A,A,|
w:Es gin-gen zwei Ge-spie-len gut wohl durch die
V:3
D,2F,>E,|D,3C,|F,2D,2|C,F,D,F,|
%
V:1
GA>GF-|FEF2|z CFF|E/D/E/F/ EA|
V:2
(_B,A,)F,2|G,2F,2|z F,F,A,|(G,/F,/G,/A,/G,)F,|
w:Hei--den gr\"u-ne, die ei-ne f\"uhrt____ ein'
V:3
G,F,D,2|C,2 z D,|F,>E,D,F,|C,3F,|
%
V:1
GGEA|AGFE|D/C/D/E/FE-|ED2^C|HD4|]
V:2
E,D,C,2|z C,D,E,|F,D,(A,>G,|F,E,/D,/E,2)|HD,4|]
w:fri-schen Mut, die an-dre wein-te seh------re.
V:3
G,G,A,F,|F,E,D,C,|_B,,2A,,C,|D,_B,,A,,2|HD,4|]
W:
W:Es gingen zwei Gespielen gut
W:wohl durch die Heiden gr\"une,
W:die eine f\"uhrt ein' frischen Mut,
W:die andre weinte sehre.
W:
W:"Gespiele, lieb Gespiele mein,
W:was trauerst du so sehre,
W:sag, trauerst du um Vaters Gut
W:oder um deine Ehre?"
W:
W:"Ich traure nicht um Vaters Gut,
W:ich traure nicht um mein' Ehre:
W:Wir zwei, wir haben ein' Knaben lieb
W:Ach Gott, was soll draus werden?
W:
W:Es gingen zwei Gespielen gut
W:wohl durch die Heiden gr\"une,
W:die eine f\"uhrt ein' frischen Mut,
W:die andre weinte sehre.
W:
W:"Gespiele, lieb Gespiele mein,
W:was trauerst du so sehre,
W:sag, trauerst du um Vaters Gut
W:oder um deine Ehre?"
W:
W:"Ich traure nicht um Vaters Gut,
W:ich traure nicht um mein' Ehre:
W:Wir zwei, wir haben ein' Knaben lieb
W:Ach Gott, was soll draus werden?
W:
W:
W:  From Musica Viva - http://www.musicaviva.com
W:  the Internet center for free sheet music downloads.

